!!!OTL: Inghean an Phailitínigh, S. 68
!!!id: I0541
**kern
*clefG2
*k[f#]
*G:
{16b
16cc
=1
8dd
8ee
8cc
8dd
=2
8b
8dd
8cc
16a
16a
=3
8g
8g
8b
8a
=4
8g
8f#
4d}
=5
{8d
8d
16d
16e
16d
16c
=6
8B
8d
16d
16e
16f#
16d
=7
8g
8g
16f#
16g
16a
16f#
=8
8g
8g
8g}
=9
{16b
16cc
=10
8dd
8ee
8cc
8dd
=11
8b
8dd
8cc
8a
=12
8g
8g
8b
8a
=13
8g
8f#
4d}
=14
{8d
8d
16d
16e
16d
16c
=15
8B
8d
16d
16e
16f#
16d
=16
8g
8g
16f#
16g
16a
16f#
=17
8g
8g
8.g}
=18
{16d
=19
16g
16g
8a
8b
8cc
=20
8.dd
16ee
8dd
16b
16cc
=21
8dd
8ee
8dd
16cc
16cc
=22
8b
8a
8.g}
=23
{16g
=24
8a
8b
8cc
8dd
=25
8cc
8b
8a
8g
=26
8f#
8g
8f#
8e
=27
4d
8d}
=28
{16b
16cc
=29
8dd
8ee
8cc
8dd
=30
8b
8dd
8cc
8a
=31
8g
8g
8b
8a
=32
8g
8f#
4d}
=33
{8d
8d
16d
16e
16d
16c
=34
8B
8d
16d
16e
16f#
16d
=35
8g
8g
16f#
16g
16a
16f#
=36
8g
8g
8g}
==
*-
!!!minrhy: 16
!!!meters: 2/4 ]  ZZ[8
!!!cut: Inghean an Phailitínigh, S. 68
!!!reg: Irland
!!!trd: O'SULLIVAN, Donal: Song of the Irish
!!!rhy1: XX  X_X_X_X_  X_X_X_XX  X_X_X_X_  X_X_X__
!!!rhy2: X_X_XXXX  X_X_XXXX  X_X_XXXX  X_X_X_
!!!key: I0541  16  G 2/4 ]  ZZ[8
!!!mod: HEPTATONIK IONISCH]  AMBITUS[11
!!!kad: -51-511-5-51
!!!akz: 5311_-5-311_5311_-5-311_1553_24-7-5_5311_-5-311_
!!!fot: 'a__b__av_b__c__d__av_b__
!!!for: 'a__b__c__bv_d__e__c__b__
!!!fok: '^d_Va_^d_Va_Ma_^d_^d_Va_
!! PHRAS[GEMISCHTTAKTIG]
!!!fkt: Liebeslied, Standesunterschied
!! IRISCHE V
!! PR[36] 2K[3] 2G[7] 3K[5] 3G[6] 4A[5] 4Ü[0] 5A[0] 6K[0] 6G[0]
!! 7K[1] 7G[0] 8A[0] MEHR[0] SI[26] ABS[87] SR[10] SP[16]
!! ST[16] 2k[6] 2g[16] 3k[9] 3g[7] 4d[0] 4ü[0] 5d[0] 6k[0] 6g[0]
!! 7k[0] 7g[0] 8d[0] mehr[0] si[38] dm[-12] sr[22] sp[16]
!! 1F[1] 2F[9] 3F[74] 4F[15] LF[0] 2P[1] 3P[0] 4P[0] TRI[0] DF[5] AB[88]
!! TF[0] U3K[0] U3[0] U4[0] U4Ü[0] U5[10] U6K[0] U6[7] U7K[0] U7[0]
!! N1[31] N2K[0] N2[13] N3K[0] N3[17] N4[16] N4Ü[0] N5[5] N6K[0] N6[2]
!!!n7k: 0] N7[0] O1[0] O2K[0] O2[0] O3K[0] O3[0] HÖ[0
